X:4002
T:Marie, cache tes bas - Tour
O:england
C:Perroches: Midi Breton
M:4/4
L:1/8
K:G
A2cd e3c|e2e2 d2c2|AAcd e3c|e2e2 d2c2:|\
|:dddd d4|ddcB A4|AAcd e3c|f2e2 dcBc|d2c2 A4:|


